src/assets/icons/banl_check.svg

<svg width="13" height="12" viewBox="0 0 13 12" fill="none" xmlns="http://www.w3.org/2000/svg">
<path d="M5.60336 2.71718L5.8979 2.39537V4.35355C5.8979 4.49821 5.95537 4.63695 6.05766 4.73924C6.15996 4.84154 6.2987 4.899 6.44336 4.899C6.58802 4.899 6.72676 4.84154 6.82905 4.73924C6.93135 4.63695 6.98881 4.49821 6.98881 4.35355V2.39537L7.28336 2.69537C7.33287 2.75129 7.39334 2.79644 7.46102 2.82804C7.5287 2.85963 7.60215 2.87699 7.67681 2.87904C7.75147 2.88108 7.82576 2.86777 7.89506 2.83993C7.96437 2.81209 8.02722 2.77031 8.07972 2.71718C8.13085 2.66648 8.17143 2.60615 8.19912 2.53968C8.22681 2.47321 8.24107 2.40192 8.24107 2.32991C8.24107 2.25791 8.22681 2.18661 8.19912 2.12014C8.17143 2.05367 8.13085 1.99335 8.07972 1.94264L6.83063 0.693548C6.77876 0.643889 6.71759 0.604963 6.65063 0.579002C6.51784 0.524447 6.36888 0.524447 6.23609 0.579002C6.16913 0.604963 6.10796 0.643889 6.05609 0.693548L4.807 1.92082C4.70139 2.02643 4.64206 2.16966 4.64206 2.319C4.64206 2.46835 4.70139 2.61158 4.807 2.71718C4.9126 2.82279 5.05583 2.88212 5.20518 2.88212C5.35452 2.88212 5.49776 2.82279 5.60336 2.71718ZM6.44336 5.98991C6.11972 5.98991 5.80334 6.08588 5.53424 6.26569C5.26515 6.44549 5.05541 6.70106 4.93156 7.00007C4.8077 7.29907 4.7753 7.62809 4.83844 7.94551C4.90158 8.26294 5.05743 8.55451 5.28628 8.78336C5.51513 9.01221 5.8067 9.16806 6.12412 9.2312C6.44154 9.29434 6.77056 9.26193 7.06957 9.13808C7.36858 9.01423 7.62414 8.80449 7.80395 8.53539C7.98375 8.26629 8.07972 7.94992 8.07972 7.62628C8.07972 7.19228 7.90732 6.77607 7.60044 6.46919C7.29357 6.16231 6.87735 5.98991 6.44336 5.98991ZM6.44336 8.17173C6.33548 8.17173 6.23002 8.13974 6.14032 8.0798C6.05062 8.01987 5.98071 7.93468 5.93942 7.83501C5.89814 7.73534 5.88734 7.62567 5.90839 7.51986C5.92943 7.41405 5.98138 7.31686 6.05766 7.24058C6.13395 7.1643 6.23114 7.11235 6.33695 7.0913C6.44275 7.07025 6.55243 7.08106 6.6521 7.12234C6.75176 7.16362 6.83695 7.23354 6.89689 7.32324C6.95682 7.41294 6.98881 7.51839 6.98881 7.62628C6.98881 7.77094 6.93135 7.90968 6.82905 8.01197C6.72676 8.11426 6.58802 8.17173 6.44336 8.17173ZM2.62518 7.62628C2.62518 7.73416 2.65717 7.83961 2.7171 7.92931C2.77704 8.01901 2.86223 8.08893 2.9619 8.13021C3.06156 8.17149 3.17124 8.1823 3.27705 8.16125C3.38285 8.1402 3.48004 8.08825 3.55633 8.01197C3.63261 7.93569 3.68456 7.8385 3.70561 7.73269C3.72665 7.62688 3.71585 7.51721 3.67457 7.41754C3.63328 7.31787 3.56337 7.23268 3.47367 7.17275C3.38397 7.11281 3.27851 7.08082 3.17063 7.08082C3.02597 7.08082 2.88723 7.13829 2.78494 7.24058C2.68265 7.34287 2.62518 7.48161 2.62518 7.62628ZM10.2615 7.62628C10.2615 7.51839 10.2296 7.41294 10.1696 7.32324C10.1097 7.23354 10.0245 7.16362 9.92482 7.12234C9.82515 7.08106 9.71548 7.07025 9.60967 7.0913C9.50387 7.11235 9.40668 7.1643 9.33039 7.24058C9.25411 7.31686 9.20216 7.41405 9.18111 7.51986C9.16007 7.62567 9.17087 7.73534 9.21215 7.83501C9.25344 7.93468 9.32335 8.01987 9.41305 8.0798C9.50275 8.13974 9.60821 8.17173 9.71609 8.17173C9.86075 8.17173 9.99949 8.11426 10.1018 8.01197C10.2041 7.90968 10.2615 7.77094 10.2615 7.62628ZM10.807 3.80809H8.62518C8.48051 3.80809 8.34178 3.86556 8.23948 3.96785C8.13719 4.07015 8.07972 4.20888 8.07972 4.35355C8.07972 4.49821 8.13719 4.63695 8.23948 4.73924C8.34178 4.84154 8.48051 4.899 8.62518 4.899H10.807C10.9517 4.899 11.0904 4.95647 11.1927 5.05876C11.295 5.16106 11.3525 5.29979 11.3525 5.44446V9.80809C11.3525 9.95276 11.295 10.0915 11.1927 10.1938C11.0904 10.2961 10.9517 10.3535 10.807 10.3535H2.07972C1.93506 10.3535 1.79632 10.2961 1.69403 10.1938C1.59174 10.0915 1.53427 9.95276 1.53427 9.80809V5.44446C1.53427 5.29979 1.59174 5.16106 1.69403 5.05876C1.79632 4.95647 1.93506 4.899 2.07972 4.899H4.26154C4.4062 4.899 4.54494 4.84154 4.64724 4.73924C4.74953 4.63695 4.807 4.49821 4.807 4.35355C4.807 4.20888 4.74953 4.07015 4.64724 3.96785C4.54494 3.86556 4.4062 3.80809 4.26154 3.80809H2.07972C1.64573 3.80809 1.22952 3.9805 0.922639 4.28737C0.615761 4.59425 0.443359 5.01047 0.443359 5.44446V9.80809C0.443359 10.2421 0.615761 10.6583 0.922639 10.9652C1.22952 11.2721 1.64573 11.4445 2.07972 11.4445H10.807C11.241 11.4445 11.6572 11.2721 11.9641 10.9652C12.271 10.6583 12.4434 10.2421 12.4434 9.80809V5.44446C12.4434 5.01047 12.271 4.59425 11.9641 4.28737C11.6572 3.9805 11.241 3.80809 10.807 3.80809Z" fill="black"/>
</svg>

<svg xmlns="http://www.w3.org/2000/svg" width="13" height="12" fill="none"><path fill="#000" d="m5.603 2.717.295-.322v1.959a.545.545 0 0 0 1.09 0V2.395l.295.3A.546.546 0 0 0 8.2 2.54a.545.545 0 0 0-.12-.597L6.832.693A.6.6 0 0 0 6.65.58a.55.55 0 0 0-.415 0 .6.6 0 0 0-.18.115L4.807 1.92a.563.563 0 1 0 .796.796m.84 3.273a1.636 1.636 0 1 0 0 3.273 1.636 1.636 0 0 0 0-3.273m0 2.182a.545.545 0 1 1 0-1.091.545.545 0 0 1 0 1.09m-3.818-.546a.545.545 0 1 0 1.091 0 .545.545 0 0 0-1.09 0m7.637 0a.545.545 0 1 0-1.09 0 .545.545 0 0 0 1.09 0m.545-3.818H8.625a.545.545 0 0 0 0 1.091h2.182a.545.545 0 0 1 .545.545v4.364a.545.545 0 0 1-.545.546H2.08a.545.545 0 0 1-.546-.546V5.444A.545.545 0 0 1 2.08 4.9h2.182a.545.545 0 1 0 0-1.09H2.08A1.636 1.636 0 0 0 .443 5.443v4.364a1.636 1.636 0 0 0 1.637 1.636h8.727a1.636 1.636 0 0 0 1.636-1.636V5.444a1.636 1.636 0 0 0-1.636-1.636"/></svg>
